icon/fc/grid.svg

<svg version="1" xmlns="http://www.w3.org/2000/svg" viewBox="0 0 48 48"><path fill="#90CAF9" d="M7 7v34h34V7H7zm32 8h-6V9h6v6zm-14 0V9h6v6h-6zm6 2v6h-6v-6h6zm-8-2h-6V9h6v6zm0 2v6h-6v-6h6zm-8 6H9v-6h6v6zm0 2v6H9v-6h6zm2 0h6v6h-6v-6zm6 8v6h-6v-6h6zm2 0h6v6h-6v-6zm0-2v-6h6v6h-6zm8-6h6v6h-6v-6zm0-2v-6h6v6h-6zM15 9v6H9V9h6zM9 33h6v6H9v-6zm24 6v-6h6v6h-6z"/></svg>

<svg version="1" xmlns="http://www.w3.org/2000/svg" viewBox="0 0 48 48" enable-background="new 0 0 48 48" height="1em" width="1em">
  <path fill="#90CAF9" d="M7,7v34h34V7H7z M39,15h-6V9h6V15z M25,15V9h6v6H25z M31,17v6h-6v-6H31z M23,15h-6V9h6V15z M23,17v6h-6v-6 H23z M15,23H9v-6h6V23z M15,25v6H9v-6H15z M17,25h6v6h-6V25z M23,33v6h-6v-6H23z M25,33h6v6h-6V33z M25,31v-6h6v6H25z M33,25h6v6h-6 V25z M33,23v-6h6v6H33z M15,9v6H9V9H15z M9,33h6v6H9V33z M33,39v-6h6v6H33z"/>
</svg>
